static/images/icons/airtable.svg

<svg fill="#fff" fill-rule="evenodd" height="300" stroke="#000" stroke-linecap="round" stroke-linejoin="round" viewBox="0 0 65 55" width="300" xmlns="http://www.w3.org/2000/svg" xmlns:xlink="http://www.w3.org/1999/xlink"><symbol id="a" overflow="visible"><g fill="#fff" fill-rule="nonzero" stroke="none" stroke-linecap="round" stroke-linejoin="round"><path d="m28.577.675-23.861 9.875c-1.327.55-1.313 2.434.022 2.963l23.96 9.502a8.89 8.89 0 0 0 6.555 0l23.96-9.502c1.335-.53 1.35-2.414.022-2.963l-23.86-9.874a8.89 8.89 0 0 0 -6.799 0" fill="#fc0"/><path d="m34.102 28.202v23.738a1.6 1.6 0 0 0 2.188 1.486l26.71-10.366a1.6 1.6 0 0 0 1.009-1.486v-23.734a1.6 1.6 0 0 0 -2.188-1.486l-26.7 10.364a1.6 1.6 0 0 0 -1.009 1.486" fill="#31c2f2"/><path d="m27.87 29.427-8.728 4.215-16.727 8.015c-1.061.513-2.415-.26-2.415-1.44v-22.277c0-.426.218-.794.512-1.07a1.82 1.82 0 0 1 .405-.304c.4-.24.97-.304 1.455-.112l25.365 10.05c1.3.512 1.4 2.318.133 2.925" fill="#ed3049"/><path d="m27.87 29.427-7.924 3.826-19.436-16.386a1.82 1.82 0 0 1 .405-.304c.4-.24.97-.304 1.455-.112l25.366 10.049c1.3.512 1.4 2.318.133 2.925" fill="#c62842"/></g></symbol><use x=".5" xlink:href="#a" y=".5"/></svg>

<svg xmlns="http://www.w3.org/2000/svg" xmlns:xlink="http://www.w3.org/1999/xlink" viewBox="0 0 65 55" fill="#fff" fill-rule="evenodd" stroke="#000" stroke-linecap="round" stroke-linejoin="round" width="300" height="300" font-family="Roboto" font-size="14px" text-anchor="middle"><defs><style type="text/css"></style></defs><use xlink:href="#A" x=".5" y=".5"></use><symbol id="A" overflow="visible"><g stroke="none" fill-rule="nonzero"><path d="M28.577.675L4.716 10.55c-1.327.55-1.313 2.434.022 2.963l23.96 9.502a8.89 8.89 0 0 0 6.555 0l23.96-9.502c1.335-.53 1.35-2.414.022-2.963L35.375.676a8.89 8.89 0 0 0-6.799 0" fill="#fc0"></path><path d="M34.102 28.202V51.94a1.6 1.6 0 0 0 2.188 1.486L63 43.06a1.6 1.6 0 0 0 1.009-1.486V17.84a1.6 1.6 0 0 0-2.188-1.486l-26.7 10.364a1.6 1.6 0 0 0-1.009 1.486" fill="#31c2f2"></path><path d="M27.87 29.427l-8.728 4.215-16.727 8.015C1.354 42.17 0 41.397 0 40.217V17.94c0-.426.218-.794.512-1.07a1.82 1.82 0 0 1 .405-.304c.4-.24.97-.304 1.455-.112l25.365 10.05c1.3.512 1.4 2.318.133 2.925" fill="#ed3049"></path><path d="M27.87 29.427l-7.924 3.826L.51 16.867a1.82 1.82 0 0 1 .405-.304c.4-.24.97-.304 1.455-.112L27.736 26.5c1.3.512 1.4 2.318.133 2.925" fill="#c62842"></path></g></symbol></svg>
